!!!OTL: Saw Ye My Father
!!!id: HA005
**kern
*clefF4
*k[f#c#]
*D:
*M2/4
{8d
=1
8.d
16e
8.f#
16g
=2
4a
8.a}
{16a
=3
4b
8.ee
16dd
=4
4cc#
8b}
{8a
=5
4dd
8dd
8cc#
=6
8cc#
8b
8b
8a
=7
4.a}
{8g
=8
8.f#
16e
8.f#
16dd
=9
4f#
8.e}
{16d
=10
8.e
16d
8e
8f#
=11
4g
8.a}
{16b
=12
4a
8.f#
16a
=13
8a
8g
8f#
8e
=14
4.d}
==
*-
!!!minrhy: 16
!!!meter: 2/4
!!!cut: Saw Ye My Father
!!!key: HA005  16  D 2/4
!!!bem: Vorschlge, Bindungen weggelassen
!!!fog: a--b--c--d--e--f--
!! Haydn: Volksliedbearbeitungen, Bd1
